images/direction-1.svg

<svg width="147" height="135" viewBox="0 0 147 135" fill="none" xmlns="http://www.w3.org/2000/svg">
<path opacity="0.5" d="M142 60.3289L125 53V68.1146L142 73V60.3289Z" fill="#2A94E2"/>
<path d="M142 60.3289L125 53V68.1146L142 73V60.3289ZM140.465 70.922L126.535 66.9204V55.371L140.465 61.3749V70.922Z" fill="black"/>
<path opacity="0.5" d="M142 75.9232L125 71V86.8938L142 90V75.9232Z" fill="#2A94E2"/>
<path d="M142 75.9232L125 71V86.8938L142 90V75.9232ZM140.465 87.9444L126.535 85.396V73.2538L140.465 77.286V87.9444Z" fill="black"/>
<path opacity="0.5" d="M88 40.2755L81 38V57.7956L88 60V40.2755Z" fill="#2A94E2"/>
<path d="M88 40.2755L81 38V57.7956L88 60V40.2755ZM86.3432 57.7795L82.6568 56.6182V40.2432L86.3432 41.4416V57.7795Z" fill="black"/>
<path opacity="0.5" d="M88 105.929V88.8668L81 88V106L88 105.929Z" fill="#2A94E2"/>
<path d="M88 105.929V88.8668L81 88V106L88 105.929ZM82.6585 89.8583L86.3449 90.3146V104.303L82.6585 104.339V89.8583Z" fill="black"/>
<path opacity="0.5" d="M97 68.4663L89 67V84.3372L97 85V68.4663Z" fill="#2A94E2"/>
<path d="M97 68.4663L89 67V84.3372L97 85V68.4663ZM95.1056 83.3203L90.8944 82.9723V68.9006L95.1056 69.6724V83.3203Z" fill="black"/>
<path d="M116 49.355L110 47V66.1888L116 68V49.355ZM114.173 65.495L111.827 64.7862V49.7244L114.173 50.645V65.495Z" fill="black"/>
<path d="M104 84.3943L110 85V69.3632L104 68V84.3943ZM105.705 70.0465L108.295 70.636V83.2039L105.705 82.9422V70.0465Z" fill="black"/>
<path opacity="0.5" d="M14 58.8011V71L58 60.8113V46L14 58.8011Z" fill="#2A94E2"/>
<path d="M14 58.8011V71L58 60.8113V46L14 58.8011ZM56.3883 59.5865L15.6085 69.0287V59.9544L56.3883 48.0893V59.5865Z" fill="black"/>
<path opacity="0.5" d="M14 90L58 84.7765V68L14 76.4655V90Z" fill="#2A94E2"/>
<path d="M14 90L58 84.7765V68L14 76.4655V90ZM15.6101 77.7785L56.3899 69.9306V83.3648L15.6101 88.2063V77.7785Z" fill="black"/>
<path d="M121.824 43.9458V33.5733L57.0224 0L18.6623 18.1631V39.0726L0 46.8761V60.6485L6.50993 61.7861V115.318H13.6708L13.6822 125.412L69.0198 134.977L69.1458 135L93.2567 131.469L96.4374 131.022V131.005L125.257 126.787L125.949 126.685V112.141L147 111.546V55.4574L121.824 43.9458ZM57.814 2.22682L120.208 34.5528V43.2067L69.1716 19.8703L57.814 24.6289V2.22682ZM15.2846 113.705H8.12529V60.4307L1.61537 59.2931V47.9492L20.2761 40.144V19.1829L56.1986 2.17518V27.0542L68.3494 21.9632V133.223L15.2959 124.051L15.2846 113.705ZM91.2311 130.127V114.329H94.822V129.612L93.1679 129.853L91.2311 130.127ZM145.385 109.974L124.333 110.57V125.289L96.4374 129.375V112.716H89.6157V130.372L69.9648 133.249V22.0084L145.383 56.4934V109.974H145.385Z" fill="black"/>
</svg>

<svg width="147" height="135" fill="none" xmlns="http://www.w3.org/2000/svg"><path opacity=".5" d="M142 60.329L125 53v15.115L142 73V60.329z" fill="#2A94E2"/><path d="M142 60.329L125 53v15.115L142 73V60.329zm-1.535 10.593l-13.93-4.002V55.371l13.93 6.004v9.547z" fill="#000"/><path opacity=".5" d="M142 75.923L125 71v15.894L142 90V75.923z" fill="#2A94E2"/><path d="M142 75.923L125 71v15.894L142 90V75.923zm-1.535 12.021l-13.93-2.548V73.254l13.93 4.032v10.658z" fill="#000"/><path opacity=".5" d="M88 40.276L81 38v19.796L88 60V40.276z" fill="#2A94E2"/><path d="M88 40.276L81 38v19.796L88 60V40.276zm-1.657 17.503l-3.686-1.16V40.242l3.686 1.199v16.337z" fill="#000"/><path opacity=".5" d="M88 105.929V88.867L81 88v18l7-.071z" fill="#2A94E2"/><path d="M88 105.929V88.867L81 88v18l7-.071zm-5.341-16.07l3.686.456v13.988l-3.686.036v-14.48z" fill="#000"/><path opacity=".5" d="M97 68.466L89 67v17.337L97 85V68.466z" fill="#2A94E2"/><path d="M97 68.466L89 67v17.337L97 85V68.466zM95.106 83.32l-4.212-.348V68.901l4.212.771V83.32zM116 49.355L110 47v19.189L116 68V49.355zm-1.827 16.14l-2.346-.709V49.724l2.346.921v14.85zM104 84.394l6 .606V69.363L104 68v16.394zm1.705-14.348l2.59.59v12.568l-2.59-.262V70.047z" fill="#000"/><path opacity=".5" d="M14 58.801V71l44-10.189V46L14 58.801z" fill="#2A94E2"/><path d="M14 58.801V71l44-10.189V46L14 58.801zm42.388.785l-40.78 9.443v-9.075l40.78-11.865v11.498z" fill="#000"/><path opacity=".5" d="M14 90l44-5.224V68l-44 8.466V90z" fill="#2A94E2"/><path d="M14 90l44-5.224V68l-44 8.466V90zm1.61-12.222l40.78-7.847v13.434l-40.78 4.841V77.778z" fill="#000"/><path d="M121.824 43.946V33.573L57.022 0l-38.36 18.163v20.91L0 46.876V60.65l6.51 1.137v53.532h7.16l.012 10.094 55.338 9.565.126.023 24.11-3.531 3.181-.447v-.017l28.82-4.218.692-.102v-14.544l21.051-.595v-56.09l-25.176-11.511zm-64.01-41.72l62.394 32.327v8.654L69.172 19.87l-11.358 4.76V2.227zm-42.53 111.479H8.126V60.431l-6.51-1.138V47.95l18.661-7.805V19.183L56.2 2.175v24.88l12.15-5.092v111.26l-53.053-9.172-.011-10.346zm75.947 16.422v-15.798h3.591v15.283l-1.654.241-1.937.274zm54.154-20.153l-21.052.596v14.719l-27.896 4.086v-16.659h-6.821v17.656l-19.651 2.877V22.009l75.418 34.484v53.481h.002z" fill="#000"/></svg>
